storage/app/icons/phosphoricons/light/bounding-box-light.svg

<svg xmlns="http://www.w3.org/2000/svg" fill="currentColor" viewBox="0 0 256 256"><path d="M208 94a14 14 0 0 0 14-14V48a14 14 0 0 0-14-14h-32a14 14 0 0 0-14 14v10H94V48a14 14 0 0 0-14-14H48a14 14 0 0 0-14 14v32a14 14 0 0 0 14 14h10v68H48a14 14 0 0 0-14 14v32a14 14 0 0 0 14 14h32a14 14 0 0 0 14-14v-10h68v10a14 14 0 0 0 14 14h32a14 14 0 0 0 14-14v-32a14 14 0 0 0-14-14h-10V94Zm-34-46a2 2 0 0 1 2-2h32a2 2 0 0 1 2 2v32a2 2 0 0 1-2 2h-32a2 2 0 0 1-2-2ZM46 80V48a2 2 0 0 1 2-2h32a2 2 0 0 1 2 2v32a2 2 0 0 1-2 2H48a2 2 0 0 1-2-2m36 128a2 2 0 0 1-2 2H48a2 2 0 0 1-2-2v-32a2 2 0 0 1 2-2h32a2 2 0 0 1 2 2Zm128-32v32a2 2 0 0 1-2 2h-32a2 2 0 0 1-2-2v-32a2 2 0 0 1 2-2h32a2 2 0 0 1 2 2m-24-14h-10a14 14 0 0 0-14 14v10H94v-10a14 14 0 0 0-14-14H70V94h10a14 14 0 0 0 14-14V70h68v10a14 14 0 0 0 14 14h10Z"/></svg>

<svg xmlns="http://www.w3.org/2000/svg" viewBox="0 0 256 256" fill="currentColor"><path d="M208,94a14,14,0,0,0,14-14V48a14,14,0,0,0-14-14H176a14,14,0,0,0-14,14V58H94V48A14,14,0,0,0,80,34H48A14,14,0,0,0,34,48V80A14,14,0,0,0,48,94H58v68H48a14,14,0,0,0-14,14v32a14,14,0,0,0,14,14H80a14,14,0,0,0,14-14V198h68v10a14,14,0,0,0,14,14h32a14,14,0,0,0,14-14V176a14,14,0,0,0-14-14H198V94ZM174,48a2,2,0,0,1,2-2h32a2,2,0,0,1,2,2V80a2,2,0,0,1-2,2H176a2,2,0,0,1-2-2ZM46,80V48a2,2,0,0,1,2-2H80a2,2,0,0,1,2,2V80a2,2,0,0,1-2,2H48A2,2,0,0,1,46,80ZM82,208a2,2,0,0,1-2,2H48a2,2,0,0,1-2-2V176a2,2,0,0,1,2-2H80a2,2,0,0,1,2,2Zm128-32v32a2,2,0,0,1-2,2H176a2,2,0,0,1-2-2V176a2,2,0,0,1,2-2h32A2,2,0,0,1,210,176Zm-24-14H176a14,14,0,0,0-14,14v10H94V176a14,14,0,0,0-14-14H70V94H80A14,14,0,0,0,94,80V70h68V80a14,14,0,0,0,14,14h10Z"/></svg>
